dist/img/sprites/icon_arrowbot.svg

<svg width="36" height="36" viewBox="0 0 36 36" fill="none" xmlns="http://www.w3.org/2000/svg">
<circle cx="18" cy="18" r="18" transform="matrix(1 0 0 -1 0 36)" fill="#23272B"/>
<path d="M25.7042 16.0261L19.0542 22.6959C18.975 22.775 18.8892 22.8312 18.7969 22.8645C18.7045 22.8977 18.6056 22.9141 18.5 22.9136C18.3944 22.9136 18.2955 22.8972 18.2031 22.8645C18.1108 22.8318 18.025 22.7755 17.9458 22.6959L11.276 16.0261C11.0913 15.8413 10.999 15.6104 10.999 15.3334C10.999 15.0563 11.0979 14.8188 11.2958 14.6209C11.4938 14.4229 11.7247 14.324 11.9885 14.324C12.2524 14.324 12.4833 14.4229 12.6813 14.6209L18.5 20.4396L24.3188 14.6209C24.5035 14.4361 24.7312 14.3438 25.002 14.3438C25.2727 14.3438 25.5068 14.4427 25.7042 14.6406C25.9021 14.8386 26.001 15.0695 26.001 15.3334C26.001 15.5972 25.9021 15.8281 25.7042 16.0261Z" fill="white"/>
</svg>

<svg width="36" height="36" viewBox="0 0 36 36" fill="none" xmlns="http://www.w3.org/2000/svg"><circle cx="18" cy="18" r="18" transform="matrix(1 0 0 -1 0 36)" fill="#23272B"/><path d="M25.704 16.026l-6.65 6.67a.701.701 0 01-.257.168.859.859 0 01-.297.05.883.883 0 01-.297-.05.688.688 0 01-.257-.168l-6.67-6.67a.94.94 0 01-.277-.693.97.97 0 01.297-.712.95.95 0 01.693-.297.95.95 0 01.692.297L18.5 20.44l5.819-5.82a.928.928 0 01.683-.276c.27 0 .505.099.702.297a.95.95 0 01.297.692.95.95 0 01-.297.693z" fill="#fff"/></svg>
